Suru++-Ubuntu/apps/scalable/org.freedesktop.bustle.svg

<svg xmlns="http://www.w3.org/2000/svg" xmlns:xlink="http://www.w3.org/1999/xlink" width="256" height="256" version="1.1" viewBox="0 0 67.73 67.73">
 <defs>
  <linearGradient id="linearGradient1108" x1="296" x2="296" y1="-212" y2="236" gradientUnits="userSpaceOnUse" xlink:href="#linearGradient1013"/>
  <linearGradient id="linearGradient1013">
   <stop offset="0" style="stop-color:#ffffff"/>
   <stop style="stop-color:#ffffff;stop-opacity:0.09803922" offset=".125"/>
   <stop style="stop-color:#000000;stop-opacity:0.09803922" offset=".925"/>
   <stop offset="1" style="stop-color:#000000;stop-opacity:0.49803922"/>
  </linearGradient>
  <clipPath id="clipPath1082-3-361" clipPathUnits="userSpaceOnUse">
   <path d="M 361.9375,-212 C 507.2348,-212 528,-191.28677 528,-46.125 V 70.125 C 528,215.28618 507.2348,236 361.9375,236 H 214.0625 C 68.7652,236 48,215.28618 48,70.125 V -46.125 C 48,-191.28677 68.7652,-212 214.0625,-212 Z" style="fill:#8c59d9"/>
  </clipPath>
  <linearGradient id="linearGradient4245">
   <stop offset="0" style="stop-color:#e8e8e8"/>
   <stop offset="1" style="stop-color:#f5f5f5"/>
  </linearGradient>
  <linearGradient id="linearGradient1044" x1="88" x2="256" y1="28" y2="284" gradientTransform="matrix(0.26970778,0,0,0.26970778,-7.1289169,220.56047)" gradientUnits="userSpaceOnUse" xlink:href="#linearGradient4245"/>
  <filter style="color-interpolation-filters:sRGB" id="filter4569" width="1.023" height="1.025" x="-.01" y="-.01">
   <feGaussianBlur stdDeviation="1.16"/>
  </filter>
  <filter style="color-interpolation-filters:sRGB" id="filter939" width="1.046" height="1.05" x="-.02" y="-.03">
   <feGaussianBlur stdDeviation="2.32"/>
  </filter>
 </defs>
 <g transform="translate(0,-229.26666)">
  <path style="opacity:0.2;filter:url(#filter939)" d="m 162.53675,5.5680001 c 72.64865,0 83.03125,10.3566149 83.03125,82.9375049 v 58.125005 c 0,72.58059 -10.3826,82.9375 -83.03125,82.9375 H 88.599254 C 15.9506,229.56801 5.568,219.2111 5.568,146.63051 V 88.505505 c 0,-72.58089 10.3826,-82.9375049 83.031254,-82.9375049 z" transform="matrix(0.26970779,0,0,0.26970779,-1.9098095e-8,231.46531)"/>
  <path d="m 43.837427,232.42762 c 19.593907,0 22.394175,2.79326 22.394175,22.3689 v 15.67676 c 0,19.57556 -2.800268,22.3689 -22.394175,22.3689 H 23.895909 c -19.5939079,0 -22.394176,-2.79334 -22.394176,-22.3689 v -15.67676 c 0,-19.57564 2.8002681,-22.3689 22.394176,-22.3689 z" style="opacity:0.1;fill:none;stroke:#000000;stroke-width:1.07883108;stroke-linecap:round;stroke-linejoin:round"/>
  <path d="m 162.53675,3.5680001 c 72.64865,0 83.03125,10.3566149 83.03125,82.9375049 v 58.125005 c 0,72.58059 -10.3826,82.9375 -83.03125,82.9375 H 88.599254 C 15.9506,227.56801 5.568,217.2111 5.568,144.63051 V 86.505505 c 0,-72.58089 10.3826,-82.9375049 83.031254,-82.9375049 z" transform="matrix(0.26970779,0,0,0.26970779,-1.9098095e-8,231.46531)" style="opacity:0.1;filter:url(#filter4569)"/>
  <path style="fill:url(#linearGradient1044)" d="m 43.837425,232.42762 c 19.593907,0 22.394175,2.79326 22.394175,22.3689 v 15.67676 c 0,19.57556 -2.800268,22.3689 -22.394175,22.3689 H 23.895906 c -19.5939065,0 -22.3941746,-2.79334 -22.3941746,-22.3689 v -15.67676 c 0,-19.57564 2.8002681,-22.3689 22.3941746,-22.3689 z"/>
  <path d="M 361.9375,-212 C 507.2348,-212 528,-191.28677 528,-46.125 V 70.125 C 528,215.28618 507.2348,236 361.9375,236 H 214.0625 C 68.7652,236 48,215.28618 48,70.125 V -46.125 C 48,-191.28677 68.7652,-212 214.0625,-212 Z" clip-path="url(#clipPath1082-3-361)" transform="matrix(0.1348539,0,0,0.1348539,-4.9712558,261.01666)" style="opacity:0.4;fill:none;stroke:url(#linearGradient1108);stroke-width:8;stroke-linecap:round;stroke-linejoin:round"/>
  <g transform="matrix(0.08711749,0,0,0.08711749,2.4477678,237.38648)">
   <path style="fill:none;stroke:#74b674;stroke-width:27.59247017;stroke-dasharray:82.77741051, 27.59247017;stroke-dashoffset:27.59247017" d="m 70.761814,288.36996 c -0.01207,-1.2669 -0.02449,-2.53589 -0.02449,-3.80671 0,-159.41492 129.271656,-288.6461129 288.736206,-288.6461129 159.46457,0 288.73621,129.2311929 288.73621,288.6461129 v 0 0 c 0,1.27082 -0.009,2.53969 -0.0245,3.80671"/>
   <path style="fill:none;stroke:#000000;stroke-width:34.42315674;stroke-miterlimit:10" d="m 511.42856,433.79074 a 130,118.57143 0 1 1 -260,0 130,118.57143 0 1 1 260,0 z" transform="matrix(0.50880116,0,0,0.55776489,164.13818,45.848517)"/>
   <path style="fill:none;stroke:#000000;stroke-width:18.45480156" d="M 417.41556,287.80173 H 628.85727"/>
   <path style="fill:none;stroke:#000000;stroke-width:18.17925262" d="m 294.08479,287.66116 -211.718251,0.2812"/>
   <path style="fill:none;stroke:#000000;stroke-width:18.33793068" d="M 200.97285,226.67532 77.897224,289.6408 200.97285,348.92819"/>
   <path style="fill:none;stroke:#000000;stroke-width:18.33793068" d="M 520.66838,225.39683 643.74401,288.36232 520.66838,347.6497"/>
  </g>
  <path style="opacity:0.25;fill:#ffffff" d="m 23.895906,292.84218 c -19.5939065,0 -22.3941746,-2.79326 -22.3941746,-22.3689 V 262.6349 H 66.2316 v 7.83838 c 0,19.57564 -2.800268,22.3689 -22.394175,22.3689 z"/>
  <path style="opacity:0.2;fill:#ffffff" d="m 33.866665,232.42762 v 60.41456 h 9.97076 c 19.593907,0 22.394175,-2.79334 22.394175,-22.3689 v -15.67676 c 0,-19.57564 -2.800268,-22.3689 -22.394175,-22.3689 z"/>
 </g>
</svg>

<svg width="256" height="256" version="1.1" viewBox="0 0 67.73 67.73" xmlns="http://www.w3.org/2000/svg" xmlns:xlink="http://www.w3.org/1999/xlink">
 <defs>
  <linearGradient id="linearGradient1108" x1="296" x2="296" y1="-212" y2="236" gradientUnits="userSpaceOnUse">
   <stop style="stop-color:#ffffff" offset="0"/>
   <stop style="stop-color:#ffffff;stop-opacity:.09803922" offset=".125"/>
   <stop style="stop-color:#000000;stop-opacity:.09803922" offset=".925"/>
   <stop style="stop-color:#000000;stop-opacity:.49803922" offset="1"/>
  </linearGradient>
  <clipPath id="clipPath1082-3-361">
   <path d="M 361.9375,-212 C 507.2348,-212 528,-191.28677 528,-46.125 V 70.125 C 528,215.28618 507.2348,236 361.9375,236 H 214.0625 C 68.7652,236 48,215.28618 48,70.125 V -46.125 C 48,-191.28677 68.7652,-212 214.0625,-212 Z" style="fill:#8c59d9"/>
  </clipPath>
  <linearGradient id="linearGradient1044" x1="88" x2="256" y1="28" y2="284" gradientTransform="matrix(.26970778 0 0 .26970778 -7.1289169 220.56047)" gradientUnits="userSpaceOnUse">
   <stop style="stop-color:#e8e8e8" offset="0"/>
   <stop style="stop-color:#f5f5f5" offset="1"/>
  </linearGradient>
  <filter id="filter4569" x="-.01" y="-.01" width="1.023" height="1.025" style="color-interpolation-filters:sRGB">
   <feGaussianBlur stdDeviation="1.16"/>
  </filter>
  <filter id="filter939" x="-.02" y="-.03" width="1.046" height="1.05" style="color-interpolation-filters:sRGB">
   <feGaussianBlur stdDeviation="2.32"/>
  </filter>
 </defs>
 <g transform="translate(0,-229.26666)">
  <path transform="matrix(.26970779 0 0 .26970779 -1.9098095e-8 231.46531)" d="m162.53675 5.5680001c72.64865 0 83.03125 10.356615 83.03125 82.937505v58.125005c0 72.58059-10.3826 82.9375-83.03125 82.9375h-73.937496c-72.648654 0-83.031254-10.35691-83.031254-82.9375v-58.125005c0-72.58089 10.3826-82.937505 83.031254-82.937505z" style="filter:url(#filter939);opacity:.2"/>
  <path d="m43.837427 232.42762c19.593907 0 22.394175 2.79326 22.394175 22.3689v15.67676c0 19.57556-2.800268 22.3689-22.394175 22.3689h-19.941518c-19.593908 0-22.394176-2.79334-22.394176-22.3689v-15.67676c0-19.57564 2.8002681-22.3689 22.394176-22.3689z" style="fill:none;opacity:.1;stroke-linecap:round;stroke-linejoin:round;stroke-width:1.0788311;stroke:#000000"/>
  <path transform="matrix(.26970779 0 0 .26970779 -1.9098095e-8 231.46531)" d="m162.53675 3.5680001c72.64865 0 83.03125 10.356615 83.03125 82.937505v58.125005c0 72.58059-10.3826 82.9375-83.03125 82.9375h-73.937496c-72.648654 0-83.031254-10.35691-83.031254-82.9375v-58.125005c0-72.58089 10.3826-82.937505 83.031254-82.937505z" style="filter:url(#filter4569);opacity:.1"/>
  <path d="m43.837425 232.42762c19.593907 0 22.394175 2.79326 22.394175 22.3689v15.67676c0 19.57556-2.800268 22.3689-22.394175 22.3689h-19.941519c-19.593906 0-22.394175-2.79334-22.394175-22.3689v-15.67676c0-19.57564 2.8002681-22.3689 22.394175-22.3689z" style="fill:url(#linearGradient1044)"/>
  <path transform="matrix(.1348539 0 0 .1348539 -4.9712558 261.01666)" d="M 361.9375,-212 C 507.2348,-212 528,-191.28677 528,-46.125 V 70.125 C 528,215.28618 507.2348,236 361.9375,236 H 214.0625 C 68.7652,236 48,215.28618 48,70.125 V -46.125 C 48,-191.28677 68.7652,-212 214.0625,-212 Z" clip-path="url(#clipPath1082-3-361)" style="fill:none;opacity:.4;stroke-linecap:round;stroke-linejoin:round;stroke-width:8;stroke:url(#linearGradient1108)"/>
  <g transform="matrix(.08711749 0 0 .08711749 2.4477678 237.38648)">
   <path d="m70.761814 288.36996c-0.01207-1.2669-0.02449-2.53589-0.02449-3.80671 0-159.41492 129.27166-288.64611 288.73621-288.64611 159.46457 0 288.73621 129.23119 288.73621 288.64611 0 1.27082-9e-3 2.53969-0.0245 3.80671" style="fill:none;stroke-dasharray:82.77741051, 27.59247017;stroke-dashoffset:27.59247;stroke-width:27.59247;stroke:#74b674"/>
   <path transform="matrix(.50880116 0 0 .55776489 164.13818 45.848517)" d="m511.42856 433.79074a130 118.57143 0 1 1-260 0 130 118.57143 0 1 1 260 0z" style="fill:none;stroke-miterlimit:10;stroke-width:34.423157;stroke:#000000"/>
   <path d="m417.41556 287.80173h211.44171" style="fill:none;stroke-width:18.454802;stroke:#000000"/>
   <path d="m294.08479 287.66116-211.71825 0.2812" style="fill:none;stroke-width:18.179253;stroke:#000000"/>
   <path d="m200.97285 226.67532-123.07563 62.96548 123.07563 59.28739" style="fill:none;stroke-width:18.337931;stroke:#000000"/>
   <path d="m520.66838 225.39683 123.07563 62.96549-123.07563 59.28738" style="fill:none;stroke-width:18.337931;stroke:#000000"/>
  </g>
  <path d="m23.895906 292.84218c-19.593906 0-22.394175-2.79326-22.394175-22.3689v-7.83838h64.729869v7.83838c0 19.57564-2.800268 22.3689-22.394175 22.3689z" style="fill:#ffffff;opacity:.25"/>
  <path d="m33.866665 232.42762v60.41456h9.97076c19.593907 0 22.394175-2.79334 22.394175-22.3689v-15.67676c0-19.57564-2.800268-22.3689-22.394175-22.3689z" style="fill:#ffffff;opacity:.2"/>
 </g>
</svg>
